assets/Compass/Flat/compass_flat.svg

<svg width="32" height="32" viewBox="0 0 32 32" fill="none" xmlns="http://www.w3.org/2000/svg">
<path d="M15.5 28C21.8513 28 27 22.8513 27 16.5C27 10.1487 21.8513 5 15.5 5C9.14873 5 4 10.1487 4 16.5C4 22.8513 9.14873 28 15.5 28Z" fill="#F4F4F4"/>
<path d="M25.7663 7.73298C26.1431 7.9044 26.5609 8 27 8C28.65 8 30 6.65 30 5C30 3.35 28.65 2 27 2C25.35 2 24 3.35 24 5C24 5.43909 24.0956 5.85693 24.267 6.23373C21.9083 4.21752 18.8463 3 15.5 3C8.04416 3 2 9.04416 2 16.5C2 23.9558 8.04416 30 15.5 30C22.9558 30 29 23.9558 29 16.5C29 13.1537 27.7825 10.0917 25.7663 7.73298ZM25.39 4.99C25.39 4.1 26.11 3.38 27 3.38C27.88 3.38 28.61 4.1 28.61 4.99C28.61 5.88 27.89 6.6 27 6.6C26.11 6.6 25.39 5.88 25.39 4.99ZM26 16.5C26 22.299 21.299 27 15.5 27C9.70101 27 5 22.299 5 16.5C5 10.701 9.70101 6 15.5 6C21.299 6 26 10.701 26 16.5Z" fill="#F9C23C"/>
<path d="M25.35 7.99994L23.99 6.63994L25.35 5.27994C25.72 4.90994 26.33 4.90994 26.71 5.27994C27.08 5.64994 27.08 6.25994 26.71 6.63994L25.35 7.99994Z" fill="#FFB02E"/>
<path d="M13.2234 17.724L11.4099 20.21C11.2299 20.45 11.5299 20.75 11.7799 20.58L14.2735 18.7609L15.2099 24.7499C15.2599 25.0799 15.7399 25.0799 15.7899 24.7499L16.8663 17.8663L23.7499 16.7899C24.0799 16.7399 24.0799 16.2599 23.7499 16.2099L17.7609 15.2735L19.5799 12.78C19.7599 12.54 19.4599 12.24 19.2099 12.41L16.724 14.2234L15.7899 8.24994C15.7399 7.91994 15.2599 7.91994 15.2099 8.24994L14.1336 15.1336L7.24994 16.2099C6.91994 16.2599 6.91994 16.7399 7.24994 16.7899L13.2234 17.724Z" fill="#9B9B9B"/>
<path d="M17.3382 15L20.9393 21.3271C21.1631 21.7255 20.7252 22.1629 20.3261 21.9394L14 18.3336L17.3382 15Z" fill="#9B9B9B"/>
<path d="M13.6756 18L10.0605 11.672C9.83756 11.2741 10.2737 10.8373 10.6711 11.0606L17 14.671L13.6756 18Z" fill="#E5336D"/>
<path d="M15.5 19C16.8807 19 18 17.8807 18 16.5C18 15.1193 16.8807 14 15.5 14C14.1193 14 13 15.1193 13 16.5C13 17.8807 14.1193 19 15.5 19Z" fill="#D3D3D3"/>
</svg>

<svg xmlns="http://www.w3.org/2000/svg" width="32" height="32" fill="none"><path fill="#F4F4F4" d="M15.5 28C21.851 28 27 22.851 27 16.5S21.851 5 15.5 5 4 10.149 4 16.5 9.149 28 15.5 28Z"/><path fill="#F9C23C" d="M25.766 7.733c.377.171.795.267 1.234.267 1.65 0 3-1.35 3-3s-1.35-3-3-3-3 1.35-3 3c0 .44.096.857.267 1.234A13.447 13.447 0 0 0 15.5 3C8.044 3 2 9.044 2 16.5S8.044 30 15.5 30 29 23.956 29 16.5c0-3.346-1.218-6.408-3.234-8.767ZM25.39 4.99a1.609 1.609 0 1 1 3.22 0 1.609 1.609 0 1 1-3.22 0ZM26 16.5C26 22.299 21.299 27 15.5 27S5 22.299 5 16.5 9.701 6 15.5 6 26 10.701 26 16.5Z"/><path fill="#FFB02E" d="m25.35 8-1.36-1.36 1.36-1.36c.37-.37.98-.37 1.36 0 .37.37.37.98 0 1.36L25.35 8Z"/><path fill="#9B9B9B" d="M13.223 17.724 11.41 20.21c-.18.24.12.54.37.37l2.494-1.82.936 5.99c.05.33.53.33.58 0l1.076-6.884 6.884-1.076c.33-.05.33-.53 0-.58l-5.99-.937 1.82-2.493c.18-.24-.12-.54-.37-.37l-2.486 1.813-.934-5.973c-.05-.33-.53-.33-.58 0l-1.076 6.884L7.25 16.21c-.33.05-.33.53 0 .58l5.973.934Z"/><path fill="#9B9B9B" d="m17.338 15 3.601 6.327c.224.398-.214.836-.613.612L14 18.334 17.338 15Z"/><path fill="#E5336D" d="m13.676 18-3.616-6.328a.448.448 0 0 1 .611-.611L17 14.67 13.676 18Z"/><path fill="#D3D3D3" d="M15.5 19a2.5 2.5 0 1 0 0-5 2.5 2.5 0 0 0 0 5Z"/></svg>
